X:1
T:Caprice No. 05
T:Caprice No. 05
T:Op. 20
T:Luigi Legnani (1790 - 1877)
C:Luigi Legnani
%%score ( 1 2 )
L:1/8
Q:1/4=150
M:2/4
K:D
V:1 treble-8 nm="Classical Guitar" snm="Guit."
V:2 treble-8 
V:1
"^Allegro Molto"!mf! d''/d''/ | d''a'/a'/ a'f'/f'/ | f'2 z a'/a'/ | a'f'/f'/ f'd'/d'/ | %4
 d'2 z"^X" f/a/ | d'd' d'd' | !>!c'2 d' f/a/ | d'd' d'd' | !>!c'2 d' F/A/ | dd dd | !>!c2 d F/A/ | %11
 dd dd | !>!c2 d A/d/ | f[Af] [Af][Af] | z [Ae] z [Bd] | z [Ac] z [^GB] | A2 z ::"^II" z | aa aa | %19
"^III" a2 ^g"^V" z | bb bb | b2 a"^IX" z | c'c' c'c' |"^VII" z [dfb] [dfd'][dfb] | %24
 z [cea] z [Bd^g] | [cea]2 z :| d''/d''/ | d''a'/a'/ a'f'/f'/ | f'2 z a'/a'/ | a'f'/f'/ f'd'/d'/ | %30
 d'2 z f/a/ | d'd' d'd' | !>!c'2 d' f/a/ | d'd' d'd' | !>!c'2 d' F/A/ | dd dd | !>!c2 d F/A/ | %37
 dd dd | !>!c2 d z | ^d[Bd] [Bd][Bd] | z [GBe] z [Beg] | z [FAd] z [EGc] | [df][df][df] z | %43
 ^d[Bd] [Bd][Bd] | z [GBe] z [Beg] | z [FAd] z [EGc] | [df][df] [df][df] | [df][df] [df][df] | %48
 [de][de] [d=f][df] | [df][df] [df][df] | [dg][dg] [d^g][dg] | [fa][df] [eg][ce] | %52
 [df][df] [df][df] | [df][df] [df][df] | [de][de] [d=f][df] | [df][df] [df][df] | %56
 [dg][dg] [d^g][dg] | [fa][df] [eg][ce] | d2 z!p! e/g/ | c'c' c'c' | d'2 z c/e/ | _bb bb | %62
 a2 z _B/c/ | g[cg] [cg][cg] | [df]2 z2 | z [ce] [ce][ce] | [FAd]2 z2 | z [ce] [ce][ce] | %68
 [FAd]2 z!f! [gc'] | [fd'][gc'] [fd'][gc'] | [fd']2 z [Gc] | [Fd][Gc] [Fd][Gc] | [Fd]2 [dfd']2 | %73
 !fermata![Adf]4 |] %74
V:2
 z | z4 | z4 | z4 | z4 | z [fa] [fa][fa] | !>![g_b]2 [fa] z | z [fa] [fa][fa] | !>![g_b]2 [fa] z | %9
 z [FA] [FA][FA] | !>![G_B]2 [FA] z | z [FA] [FA][FA] | !>![G_B]2 [FA] z | z D DD | C z D z | %15
 E z E, z | A,2 z :: A/c/ | z [Ac] [Ac][Ac] | [Bd]3 d/e/ | z [de] [de][de] | [ce]2 [ce] e/a/ | %22
 z [ea] [ea][ea] | D2 z2 | E, z E, z | A,2 z :| z | z4 | z4 | z4 | z4 | z [fa] [fa][fa] | %32
 !>![g_b]2 [fa] z | z [fa] [fa][fa] | !>![g_b]2 [fa] z | z [FA] [FA][FA] | !>![G_B]2 [FA] z | %37
 z [FA] [FA][FA] | !>![G_B]2 [FA] z | z =C B,A, | G, z E, z | A, z A, z | DEF F/B/ | z =C B,A, | %44
 G, z E, z | A, z A, z | DC B,^A, | B,=A, G,F, | G,2 ^G,2 | A,2 =C2 | B,2 _B,2 | A,2 A,2 | %52
 DC B,^A, | B,=A, G,F, | G,2 ^G,2 | A,2 =C2 | B,2 _B,2 | A,2 A,2 | D2 z2 | z [eg] [eg][eg] | %60
 [df]2 z2 | z [ce] [ce][ce] | [df]2 z2 | z _B BB | A2 z A,/E/ | G_B AG | D2 z A,/E/ | G_B AG | %68
 D2 z A, | DA, DA, | D2 z A, | DA, DA, | D2 D2 | [F,A,D]4 |] %74

